src/assets/svg/icons/C.svg

<svg width="35" height="37" viewBox="0 0 35 37" fill="none" xmlns="http://www.w3.org/2000/svg">
<circle cx="17.5" cy="19.5" r="17.5" fill="#FFD234"/>
<path d="M27.2159 15.5795H22.9659C22.8447 14.8826 22.6212 14.2652 22.2955 13.7273C21.9697 13.1818 21.5644 12.7197 21.0795 12.3409C20.5947 11.9621 20.0417 11.678 19.4205 11.4886C18.8068 11.2917 18.1439 11.1932 17.4318 11.1932C16.1667 11.1932 15.0455 11.5114 14.0682 12.1477C13.0909 12.7765 12.3258 13.7008 11.7727 14.9205C11.2197 16.1326 10.9432 17.6136 10.9432 19.3636C10.9432 21.1439 11.2197 22.6439 11.7727 23.8636C12.3333 25.0758 13.0985 25.9924 14.0682 26.6136C15.0455 27.2273 16.1629 27.5341 17.4205 27.5341C18.1174 27.5341 18.7689 27.4432 19.375 27.2614C19.9886 27.072 20.5379 26.7955 21.0227 26.4318C21.5152 26.0682 21.928 25.6212 22.2614 25.0909C22.6023 24.5606 22.8371 23.9545 22.9659 23.2727L27.2159 23.2955C27.0568 24.4015 26.7121 25.4394 26.1818 26.4091C25.6591 27.3788 24.9735 28.2348 24.125 28.9773C23.2765 29.7121 22.2841 30.2879 21.1477 30.7045C20.0114 31.1136 18.75 31.3182 17.3636 31.3182C15.3182 31.3182 13.4924 30.8447 11.8864 29.8977C10.2803 28.9508 9.01515 27.5833 8.09091 25.7955C7.16667 24.0076 6.70455 21.8636 6.70455 19.3636C6.70455 16.8561 7.17045 14.7121 8.10227 12.9318C9.03409 11.1439 10.303 9.77651 11.9091 8.82954C13.5152 7.88257 15.3333 7.40909 17.3636 7.40909C18.6591 7.40909 19.8636 7.59091 20.9773 7.95454C22.0909 8.31818 23.0833 8.85227 23.9545 9.55682C24.8258 10.2538 25.5417 11.1098 26.1023 12.125C26.6705 13.1326 27.0417 14.2841 27.2159 15.5795Z" fill="black"/>
</svg>

<svg width="35" height="37" fill="none" xmlns="http://www.w3.org/2000/svg"><circle cx="17.5" cy="19.5" r="17.5" fill="#FFD234"/><path d="M27.216 15.58h-4.25a5.29 5.29 0 0 0-.67-1.853 4.981 4.981 0 0 0-1.216-1.386 5.066 5.066 0 0 0-1.66-.852 6.475 6.475 0 0 0-1.988-.296c-1.265 0-2.386.318-3.364.955-.977.629-1.742 1.553-2.295 2.773-.553 1.212-.83 2.693-.83 4.443 0 1.78.277 3.28.83 4.5.56 1.212 1.325 2.128 2.295 2.75.978.613 2.095.92 3.353.92.696 0 1.348-.09 1.954-.273a5.35 5.35 0 0 0 1.648-.83 5.063 5.063 0 0 0 1.943-3.16l4.25.024a9.152 9.152 0 0 1-1.034 3.114 9.18 9.18 0 0 1-2.057 2.568c-.849.735-1.84 1.31-2.977 1.727-1.137.41-2.398.614-3.784.614-2.046 0-3.872-.473-5.478-1.42-1.606-.947-2.87-2.315-3.795-4.102-.924-1.788-1.386-3.932-1.386-6.432 0-2.508.465-4.652 1.397-6.432.932-1.788 2.201-3.155 3.807-4.102 1.606-.947 3.424-1.42 5.455-1.42 1.295 0 2.5.18 3.613.545a9.257 9.257 0 0 1 2.977 1.602 8.526 8.526 0 0 1 2.148 2.568c.569 1.008.94 2.16 1.114 3.454z" fill="#000"/></svg>
